front/public/static/landing/logos/gray/1password.svg

<svg fill="none" height="300" viewBox="0 -140.2 908 454" width="600" xmlns="http://www.w3.org/2000/svg"><g fill="#364153"><path clip-rule="evenodd" d="m174.553 86.7961c0-47.9356-38.884-86.7961-86.8472-86.7961-47.9636 0-86.846913 38.8605-86.846913 86.7961 0 47.9379 38.883313 86.7959 86.846913 86.7959 47.9632 0 86.8472-38.858 86.8472-86.7959zm-102.6544-48.2201c-.6828 1.3392-.6828 3.0924-.6828 6.5987v19.8725c0 .8759 0 1.3138.1107 1.7187.098.3587.2592.6971.476.9993.2446.3411.5847.6172 1.2649 1.1695l5.0298 4.0835c.8199.6656 1.2298.9984 1.3786 1.3991.1305.3514.1305.738 0 1.0894-.1488.4006-.5587.7334-1.3786 1.399l-5.0297 4.0836c-.6802.5522-1.0204.8283-1.265 1.1694-.2168.3022-.378.6406-.476.9994-.1107.4049-.1107.8428-.1107 1.7187v43.5402c0 3.506 0 5.259.6828 6.598.6006 1.179 1.5589 2.136 2.7376 2.736 1.3401.683 3.0943.683 6.6026.683h12.9339c3.5083 0 5.2625 0 6.6023-.683 1.179-.6 2.137-1.557 2.738-2.736.683-1.339.683-3.092.683-6.598v-19.873c0-.876 0-1.314-.111-1.718-.098-.359-.259-.698-.476-1-.245-.341-.585-.617-1.265-1.169l-5.0297-4.084c-.8198-.6653-1.2298-.9982-1.3786-1.3989-.1305-.3514-.1305-.7379 0-1.0893.1488-.4007.5587-.7335 1.3786-1.3991l5.0297-4.0835c.68-.5522 1.02-.8284 1.265-1.1695.217-.3022.378-.6406.476-.9993.111-.4049.111-.8428.111-1.7187v-43.54c0-3.5063 0-5.2595-.683-6.5987-.601-1.178-1.559-2.1358-2.738-2.736-1.3398-.6824-3.094-.6824-6.6023-.6824h-12.9339c-3.5083 0-5.2625 0-6.6026.6824-1.1787.6002-2.137 1.558-2.7376 2.736z" fill-rule="evenodd"/><path d="m244.271 138.719c.861 0 1.558-.697 1.558-1.557v-101.9556c0-.8599-.697-1.557-1.558-1.557h-15.034c-.557 0-1.067.3013-1.373.7665-3.447 5.2385-9.857 7.877-18.641 8.1517-.86.0268-1.559.721-1.559 1.581v15.2492c0 .8599.697 1.557 1.558 1.557h12.15c.86 0 1.558.6971 1.558 1.5571v74.6501c0 .86.697 1.557 1.558 1.557z"/><path d="m304.292 54.7273c8.11 0 14.63 4.3114 14.63 15.1696 0 10.539-6.52 15.1697-14.63 15.1697h-17.652v-30.3393zm0 49.9797c23.853 0 37.688-14.5306 37.688-35.4488 0-19.8004-13.835-34.3313-37.688-34.3313h-38.834c-.861 0-1.558.6971-1.558 1.557v100.6781c0 .86.697 1.557 1.558 1.557h19.624c.86 0 1.558-.697 1.558-1.557v-30.898c0-.86.698-1.557 1.558-1.557z"/><path d="m377.251 124.029c-6.679 0-10.813-3.034-10.813-8.463 0-4.791 2.862-7.984 9.7-7.984h18.606v1.596c0 9.262-7.951 14.851-17.493 14.851zm19.242 13.133c0 .86.698 1.557 1.558 1.557h17.08c.861 0 1.558-.697 1.558-1.557v-45.0694c0-21.7166-12.245-34.3314-34.349-34.3314-16.412 0-28.977 8.7644-34.129 22.8545-.309.8462.204 1.7587 1.08 1.9733l17.208 4.2178c.778.1906 1.568-.2408 1.871-.9814 2.613-6.3921 6.964-10.1799 13.97-10.1799 7.315 0 12.404 4.7904 12.404 13.4131v1.1178c0 2.3952-.795 3.3533-3.658 3.3533h-19.878c-16.538 0-26.557 8.7823-26.557 22.6743 0 14.851 11.45 24.432 27.352 24.432 8.002 0 15.69-2.63 21.108-8.486 1.065-1.151 3.382-.449 3.382 1.119z"/><path d="m458.999 124.667c-7.727 0-13.372-3.207-16.155-9.101-.337-.715-1.121-1.131-1.889-.937l-16.085 4.072c-.827.209-1.336 1.047-1.09 1.864 4.072 13.524 17.693 20.071 34.424 20.071 21.469 0 33.713-11.018 33.713-26.028 0-29.0623-45.958-19.1621-45.958-33.5334 0-4.7904 3.976-7.8244 11.132-7.8244 7.122 0 11.891 3.8924 14.177 9.8612.283.7404 1.043 1.2049 1.822 1.0574l16.417-3.1077c.877-.1662 1.439-1.037 1.186-1.8932-3.766-12.7145-14.349-21.4067-33.443-21.4067-20.991 0-32.123 11.1777-32.123 25.2296 0 30.0202 46.117 21.0782 46.117 33.5332 0 4.95-4.134 8.143-12.245 8.143z"/><path d="m530.442 124.667c-7.728 0-13.372-3.207-16.155-9.101-.338-.715-1.122-1.131-1.889-.937l-16.085 4.072c-.827.209-1.336 1.047-1.09 1.864 4.072 13.524 17.692 20.071 34.424 20.071 21.468 0 33.713-11.018 33.713-26.028 0-29.0623-45.958-19.1621-45.958-33.5334 0-4.7904 3.976-7.8244 11.132-7.8244 7.122 0 11.89 3.8924 14.176 9.8612.284.7404 1.043 1.2049 1.823 1.0574l16.416-3.1077c.878-.1662 1.44-1.037 1.186-1.8932-3.765-12.7145-14.349-21.4067-33.442-21.4067-20.991 0-32.123 11.1777-32.123 25.2296 0 30.0202 46.117 21.0782 46.117 33.5332 0 4.95-4.135 8.143-12.245 8.143z"/><path d="m583.463 137.53c.17.698.795 1.189 1.514 1.189h24.734c.723 0 1.351-.497 1.517-1.2l12.598-53.5702 12.599 53.5702c.165.703.793 1.2 1.517 1.2h25.532c.717 0 1.342-.489 1.513-1.186l18.636-75.9276c.241-.9811-.502-1.928-1.513-1.928h-17.577c-.739 0-1.376.5186-1.526 1.2417l-12.465 60.2349-15.443-60.3056c-.177-.6891-.798-1.171-1.509-1.171h-19.664c-.722 0-1.349.4952-1.516 1.1967l-14.346 60.2799-12.308-60.2311c-.148-.7249-.786-1.2455-1.526-1.2455h-17.737c-1.01 0-1.753.9448-1.514 1.9251z"/><path d="m725.638 140.636c23.853 0 40.233-18.523 40.233-41.3578 0-22.994-16.38-41.517-40.233-41.517-23.695 0-40.233 18.523-40.233 41.517 0 22.8348 16.538 41.3578 40.233 41.3578zm0-19.002c-9.86 0-17.493-8.304-17.493-22.3558 0-14.0519 7.633-22.515 17.493-22.515 9.859 0 17.651 8.4631 17.651 22.515 0 14.0518-7.792 22.3558-17.651 22.3558z"/><path d="m797.237 96.883c0-13.5729 6.838-16.7665 17.333-16.7665 2.012 0 4.223.1997 6.318.5991.888.1692 1.768-.3975 1.925-1.2871l3.329-18.8046c.117-.6605-.199-1.3302-.816-1.5931-1.913-.8144-4.279-1.2696-7.098-1.2696-10.655 0-18.924 6.2276-22.899 18.8423v-15.3691c0-.8599-.698-1.557-1.558-1.557h-17.24c-.86 0-1.557.6971-1.557 1.557v75.9276c0 .86.697 1.557 1.557 1.557h19.148c.86 0 1.558-.697 1.558-1.557z"/><path d="m867.288 122.113c-11.45 0-17.493-9.422-17.493-22.8348 0-13.4132 6.043-22.994 17.493-22.994s17.493 9.5808 17.493 22.994c0 13.4128-6.043 22.8348-17.493 22.8348zm18.765 15.049c0 .86.697 1.557 1.558 1.557h17.875c.86 0 1.558-.697 1.558-1.557v-100.4459c0-.8599-.698-1.557-1.558-1.557h-18.511c-.861 0-1.558.6971-1.558 1.557v33.9792c-4.93-9.2614-13.199-12.9341-23.695-12.9341-20.514 0-34.508 17.8843-34.508 41.517 0 23.6328 13.994 41.3578 34.508 41.3578 11.132 0 19.719-4.472 24.331-15.969z"/></g></svg>

<svg width="600" height="300" viewBox="0 -140.2 908 454" fill="none" xmlns="http://www.w3.org/2000/svg">
<path fill-rule="evenodd" clip-rule="evenodd" d="M174.553 86.7961C174.553 38.8605 135.669 0 87.7058 0C39.7422 0 0.858887 38.8605 0.858887 86.7961C0.858887 134.734 39.7422 173.592 87.7058 173.592C135.669 173.592 174.553 134.734 174.553 86.7961ZM71.8986 38.576C71.2158 39.9152 71.2158 41.6684 71.2158 45.1747V65.0472C71.2158 65.9231 71.2158 66.361 71.3265 66.7659C71.4245 67.1246 71.5857 67.463 71.8025 67.7652C72.0471 68.1063 72.3872 68.3824 73.0674 68.9347L78.0972 73.0182C78.9171 73.6838 79.327 74.0166 79.4758 74.4173C79.6063 74.7687 79.6063 75.1553 79.4758 75.5067C79.327 75.9073 78.9171 76.2401 78.0972 76.9057L73.0675 80.9893C72.3873 81.5415 72.0471 81.8176 71.8025 82.1587C71.5857 82.4609 71.4245 82.7993 71.3265 83.1581C71.2158 83.563 71.2158 84.0009 71.2158 84.8768V128.417C71.2158 131.923 71.2158 133.676 71.8986 135.015C72.4992 136.194 73.4575 137.151 74.6362 137.751C75.9763 138.434 77.7305 138.434 81.2388 138.434H94.1727C97.681 138.434 99.4352 138.434 100.775 137.751C101.954 137.151 102.912 136.194 103.513 135.015C104.196 133.676 104.196 131.923 104.196 128.417V108.544C104.196 107.668 104.196 107.23 104.085 106.826C103.987 106.467 103.826 106.128 103.609 105.826C103.364 105.485 103.024 105.209 102.344 104.657L97.3143 100.573C96.4945 99.9077 96.0845 99.5748 95.9357 99.1741C95.8052 98.8227 95.8052 98.4362 95.9357 98.0848C96.0845 97.6841 96.4944 97.3513 97.3143 96.6857L102.344 92.6022C103.024 92.05 103.364 91.7738 103.609 91.4327C103.826 91.1305 103.987 90.7921 104.085 90.4334C104.196 90.0285 104.196 89.5906 104.196 88.7147V45.1747C104.196 41.6684 104.196 39.9152 103.513 38.576C102.912 37.398 101.954 36.4402 100.775 35.84C99.4352 35.1576 97.681 35.1576 94.1727 35.1576H81.2388C77.7305 35.1576 75.9763 35.1576 74.6362 35.84C73.4575 36.4402 72.4992 37.398 71.8986 38.576Z" fill="#364153"/>
<path d="M244.271 138.719C245.132 138.719 245.829 138.022 245.829 137.162V35.2064C245.829 34.3465 245.132 33.6494 244.271 33.6494H229.237C228.68 33.6494 228.17 33.9507 227.864 34.4159C224.417 39.6544 218.007 42.2929 209.223 42.5676C208.363 42.5944 207.664 43.2886 207.664 44.1486V59.3978C207.664 60.2577 208.361 60.9548 209.222 60.9548H221.372C222.232 60.9548 222.93 61.6519 222.93 62.5119V137.162C222.93 138.022 223.627 138.719 224.488 138.719H244.271Z" fill="#364153"/>
<path d="M304.292 54.7273C312.402 54.7273 318.922 59.0387 318.922 69.8969C318.922 80.4359 312.402 85.0666 304.292 85.0666H286.64V54.7273H304.292ZM304.292 104.707C328.145 104.707 341.98 90.1764 341.98 69.2582C341.98 49.4578 328.145 34.9269 304.292 34.9269H265.458C264.597 34.9269 263.9 35.624 263.9 36.4839V137.162C263.9 138.022 264.597 138.719 265.458 138.719H285.082C285.942 138.719 286.64 138.022 286.64 137.162V106.264C286.64 105.404 287.338 104.707 288.198 104.707H304.292Z" fill="#364153"/>
<path d="M377.251 124.029C370.572 124.029 366.438 120.995 366.438 115.566C366.438 110.775 369.3 107.582 376.138 107.582H394.744V109.178C394.744 118.44 386.793 124.029 377.251 124.029ZM396.493 137.162C396.493 138.022 397.191 138.719 398.051 138.719H415.131C415.992 138.719 416.689 138.022 416.689 137.162V92.0926C416.689 70.376 404.444 57.7612 382.34 57.7612C365.928 57.7612 353.363 66.5256 348.211 80.6157C347.902 81.4619 348.415 82.3744 349.291 82.589L366.499 86.8068C367.277 86.9974 368.067 86.566 368.37 85.8254C370.983 79.4333 375.334 75.6455 382.34 75.6455C389.655 75.6455 394.744 80.4359 394.744 89.0586V90.1764C394.744 92.5716 393.949 93.5297 391.086 93.5297H371.208C354.67 93.5297 344.651 102.312 344.651 116.204C344.651 131.055 356.101 140.636 372.003 140.636C380.005 140.636 387.693 138.006 393.111 132.15C394.176 130.999 396.493 131.701 396.493 133.269V137.162Z" fill="#364153"/>
<path d="M458.999 124.667C451.272 124.667 445.627 121.46 442.844 115.566C442.507 114.851 441.723 114.435 440.955 114.629L424.87 118.701C424.043 118.91 423.534 119.748 423.78 120.565C427.852 134.089 441.473 140.636 458.204 140.636C479.673 140.636 491.917 129.618 491.917 114.608C491.917 85.5457 445.959 95.4459 445.959 81.0746C445.959 76.2842 449.935 73.2502 457.091 73.2502C464.213 73.2502 468.982 77.1426 471.268 83.1114C471.551 83.8518 472.311 84.3163 473.09 84.1688L489.507 81.0611C490.384 80.8949 490.946 80.0241 490.693 79.1679C486.927 66.4534 476.344 57.7612 457.25 57.7612C436.259 57.7612 425.127 68.9389 425.127 82.9908C425.127 113.011 471.244 104.069 471.244 116.524C471.244 121.474 467.11 124.667 458.999 124.667Z" fill="#364153"/>
<path d="M530.442 124.667C522.714 124.667 517.07 121.46 514.287 115.566C513.949 114.851 513.165 114.435 512.398 114.629L496.313 118.701C495.486 118.91 494.977 119.748 495.223 120.565C499.295 134.089 512.915 140.636 529.647 140.636C551.115 140.636 563.36 129.618 563.36 114.608C563.36 85.5457 517.402 95.4459 517.402 81.0746C517.402 76.2842 521.378 73.2502 528.534 73.2502C535.656 73.2502 540.424 77.1426 542.71 83.1114C542.994 83.8518 543.753 84.3163 544.533 84.1688L560.949 81.0611C561.827 80.8949 562.389 80.0241 562.135 79.1679C558.37 66.4534 547.786 57.7612 528.693 57.7612C507.702 57.7612 496.57 68.9389 496.57 82.9908C496.57 113.011 542.687 104.069 542.687 116.524C542.687 121.474 538.552 124.667 530.442 124.667Z" fill="#364153"/>
<path d="M583.463 137.53C583.633 138.228 584.258 138.719 584.977 138.719H609.711C610.434 138.719 611.062 138.222 611.228 137.519L623.826 83.9488L636.425 137.519C636.59 138.222 637.218 138.719 637.942 138.719H663.474C664.191 138.719 664.816 138.23 664.987 137.533L683.623 61.6054C683.864 60.6243 683.121 59.6774 682.11 59.6774H664.533C663.794 59.6774 663.157 60.196 663.007 60.9191L650.542 121.154L635.099 60.8484C634.922 60.1593 634.301 59.6774 633.59 59.6774H613.926C613.204 59.6774 612.577 60.1726 612.41 60.8741L598.064 121.154L585.756 60.9229C585.608 60.198 584.97 59.6774 584.23 59.6774H566.493C565.483 59.6774 564.74 60.6222 564.979 61.6025L583.463 137.53Z" fill="#364153"/>
<path d="M725.638 140.636C749.491 140.636 765.871 122.113 765.871 99.2782C765.871 76.2842 749.491 57.7612 725.638 57.7612C701.943 57.7612 685.405 76.2842 685.405 99.2782C685.405 122.113 701.943 140.636 725.638 140.636ZM725.638 121.634C715.778 121.634 708.145 113.33 708.145 99.2782C708.145 85.2263 715.778 76.7632 725.638 76.7632C735.497 76.7632 743.289 85.2263 743.289 99.2782C743.289 113.33 735.497 121.634 725.638 121.634Z" fill="#364153"/>
<path d="M797.237 96.883C797.237 83.3101 804.075 80.1165 814.57 80.1165C816.582 80.1165 818.793 80.3162 820.888 80.7156C821.776 80.8848 822.656 80.3181 822.813 79.4285L826.142 60.6239C826.259 59.9634 825.943 59.2937 825.326 59.0308C823.413 58.2164 821.047 57.7612 818.228 57.7612C807.573 57.7612 799.304 63.9888 795.329 76.6035V61.2344C795.329 60.3745 794.631 59.6774 793.771 59.6774H776.531C775.671 59.6774 774.974 60.3745 774.974 61.2344V137.162C774.974 138.022 775.671 138.719 776.531 138.719H795.679C796.539 138.719 797.237 138.022 797.237 137.162V96.883Z" fill="#364153"/>
<path d="M867.288 122.113C855.838 122.113 849.795 112.691 849.795 99.2782C849.795 85.865 855.838 76.2842 867.288 76.2842C878.738 76.2842 884.781 85.865 884.781 99.2782C884.781 112.691 878.738 122.113 867.288 122.113ZM886.053 137.162C886.053 138.022 886.75 138.719 887.611 138.719H905.486C906.346 138.719 907.044 138.022 907.044 137.162V36.7161C907.044 35.8562 906.346 35.1591 905.486 35.1591H886.975C886.114 35.1591 885.417 35.8562 885.417 36.7161V70.6953C880.487 61.4339 872.218 57.7612 861.722 57.7612C841.208 57.7612 827.214 75.6455 827.214 99.2782C827.214 122.911 841.208 140.636 861.722 140.636C872.854 140.636 881.441 136.164 886.053 124.667V137.162Z" fill="#364153"/>
</svg>
